!!!ONR: No. 13
!! From Harold Courlander, "Haiti Singing"
!! Chapel Hill: University of North Carolina Press, 1939
!! Copyright University of North Carolina Press
!!!ENC: D. Huron
**kern
*clefG2
*k[f#]
*M2/4
=1-
6dd
6dd
6b
=2
4a
8b
8dd
=3
4.ee
8ff#
=4
8ee
8ff#
4ee
=5
6dd
6dd
6b
=6
[2a
=7
4a]
8b
8dd
=8
8ee
8ff#
8ee
8ee
=9
8dd
8ee
8dd
8dd
=10
8a
8a
8b
8dd
=11
8dd
8ee
8ee
8ee
=12
6dd
6dd
6b
=13
4a
8b
8dd
=14
4.ee
8ff#
=15
8ee
8ff#
4ee
=16
6dd
6dd
6b
=17
4a
8e
8e
=18
[2a
=19
2a]
==
*-
